SVG_Azure_All/Application Gateway.svg

<?xml version="1.0" encoding="UTF-8" standalone="no"?>
<!-- Generated by Microsoft Visio, SVG Export Application Gateway.svg Page-1 -->

<svg
   xmlns:dc="http://purl.org/dc/elements/1.1/"
   xmlns:cc="http://creativecommons.org/ns#"
   xmlns:rdf="http://www.w3.org/1999/02/22-rdf-syntax-ns#"
   xmlns:svg="http://www.w3.org/2000/svg"
   xmlns="http://www.w3.org/2000/svg"
   xmlns:sodipodi="http://sodipodi.sourceforge.net/DTD/sodipodi-0.dtd"
   xmlns:inkscape="http://www.inkscape.org/namespaces/inkscape"
   width="0.76615471in"
   height="0.76615471in"
   viewBox="0 0 55.162997 55.16303"
   xml:space="preserve"
   class="st9"
   version="1.1"
   id="svg98"
   sodipodi:docname="Application Gateway.svg"
   style="font-size:12px;overflow:visible;color-interpolation-filters:sRGB;fill:none;fill-rule:evenodd;stroke-linecap:square;stroke-miterlimit:3"
   inkscape:version="0.92.5 (2060ec1f9f, 2020-04-08)"><metadata
   id="metadata102"><rdf:RDF><cc:Work
       rdf:about=""><dc:format>image/svg+xml</dc:format><dc:type
         rdf:resource="http://purl.org/dc/dcmitype/StillImage" /></cc:Work></rdf:RDF></metadata><sodipodi:namedview
   pagecolor="#ffffff"
   bordercolor="#666666"
   borderopacity="1"
   objecttolerance="10"
   gridtolerance="10"
   guidetolerance="10"
   inkscape:pageopacity="0"
   inkscape:pageshadow="2"
   inkscape:window-width="640"
   inkscape:window-height="480"
   id="namedview100"
   showgrid="false"
   inkscape:zoom="1.4280845"
   inkscape:cx="36.777567"
   inkscape:cy="36.250122"
   inkscape:window-x="0"
   inkscape:window-y="0"
   inkscape:window-maximized="0"
   inkscape:current-layer="svg98" />
	<style
   type="text/css"
   id="style2">
	<![CDATA[
		.st1 {fill:url(#grad0-6);stroke:none;stroke-linecap:butt;stroke-width:34}
		.st2 {fill:#ffffff;stroke:none;stroke-linecap:butt;stroke-width:34}
		.st3 {fill:#0078d4}
		.st4 {stroke:none;stroke-linecap:butt;stroke-width:34}
		.st5 {fill:url(#grad0-20);stroke:none;stroke-linecap:butt;stroke-width:34}
		.st6 {fill:#f2f2f2;fill-opacity:0.55;stroke:none;stroke-linecap:butt;stroke-width:34}
		.st7 {fill:none;stroke:none;stroke-linecap:butt;stroke-width:34}
		.st8 {fill:#f2f2f2;stroke:none;stroke-linecap:butt;stroke-width:34}
		.st9 {fill:none;fill-rule:evenodd;font-size:12px;overflow:visible;stroke-linecap:square;stroke-miterlimit:3}
	]]>
	</style>

	<defs
   id="Patterns_And_Gradients">
		<linearGradient
   id="grad0-6"
   x1="0"
   y1="83.85"
   x2="40.09"
   y2="83.85"
   gradientUnits="userSpaceOnUse">
			<stop
   offset="0"
   stop-color="#5e9624"
   stop-opacity="1"
   id="stop4" />
			<stop
   offset="0.55"
   stop-color="#6dad2a"
   stop-opacity="1"
   id="stop6" />
			<stop
   offset="1"
   stop-color="#76bc2d"
   stop-opacity="1"
   id="stop8" />
		</linearGradient>
		<linearGradient
   id="grad0-20"
   x1="0"
   y1="118.29399"
   x2="5.6480198"
   y2="118.29399"
   gradientUnits="userSpaceOnUse">
			<stop
   offset="0"
   stop-color="#cccccc"
   stop-opacity="1"
   id="stop11" />
			<stop
   offset="0.12"
   stop-color="#d7d7d7"
   stop-opacity="1"
   id="stop13" />
			<stop
   offset="0.42"
   stop-color="#ebebeb"
   stop-opacity="1"
   id="stop15" />
			<stop
   offset="0.72"
   stop-color="#f8f8f8"
   stop-opacity="1"
   id="stop17" />
			<stop
   offset="1"
   stop-color="#fcfcfc"
   stop-opacity="1"
   id="stop19" />
		</linearGradient>
	</defs>
	<g
   id="g96"
   transform="translate(-33.996906,-33.995496)">
		<title
   id="title23">Page-1</title>
		<g
   id="group9731-1"
   transform="translate(33.2336,-34.0157)">
			<title
   id="title25">Application Gateway</title>
			<g
   id="group9732-2">
				<title
   id="title27">Icon-networking-76</title>
				<g
   id="shape9733-3"
   transform="rotate(-45,14.173149,89.725089)">
					<title
   id="title29">Sheet.9733</title>
					<path
   d="m 0,122.09 a 1.85026,1.85026 -180 0 0 1.85,1.85 h 36.39 a 1.85026,1.85026 -180 0 0 1.85,-1.85 V 85.7 A 1.85026,1.85026 -180 0 0 38.24,83.85 H 1.85 A 1.85026,1.85026 -180 0 0 0,85.7 Z"
   class="st1"
   id="path31"
   inkscape:connector-curvature="0"
   style="fill:url(#grad0-6);stroke:none;stroke-width:34;stroke-linecap:butt" />
				</g>
				<g
   id="group9734-7"
   transform="translate(12.1473,-8.55108)">
					<title
   id="title34">Sheet.9734</title>
					<g
   id="shape9735-8"
   transform="translate(13.6671,-14.8945)">
						<title
   id="title36">Sheet.9735</title>
						<path
   d="m 8.7,123.94 h 9.22 a 0.357059,0.357059 -180 0 0 0.324599,-0.35706 L 18.24,114.4 a 0.324599,0.324599 -180 0 0 -0.584278,-0.22722 L 15.12,116.7 v 0.17 a 0.324599,0.324599 0 0 1 -0.454438,0 L 3.41,105.76 a 0.324599,0.324599 -180 0 0 -0.454438,0 L 0.1,108.62 a 0.357059,0.357059 -180 0 0 0,0.4869 L 11.16,120.18 a 0.357059,0.357059 0 0 1 0,0.4869 L 11,120.83 8.47,123.36 a 0.357059,0.357059 -180 0 0 0.227219,0.58428 z"
   class="st2"
   id="path38"
   inkscape:connector-curvature="0"
   style="fill:#ffffff;stroke:none;stroke-width:34;stroke-linecap:butt" />
					</g>
					<g
   id="shape9736-10"
   transform="translate(0,-14.8945)">
						<title
   id="title41">Sheet.9736</title>
						<path
   d="M 9.48,123.94 H 0.26 A 0.357059,0.357059 0 0 1 3.21e-4,123.58294 L 0,114.4 a 0.324599,0.324599 0 0 1 0.551818,-0.22722 L 3.12,116.7 v 0.17 a 0.324599,0.324599 -180 0 0 0.454438,0 L 14.77,105.76 a 0.324599,0.324599 0 0 1 0.454438,0 L 18.08,108.62 a 0.357059,0.357059 0 0 1 0,0.4869 L 7.01,120.18 a 0.357059,0.357059 -180 0 0 0,0.4869 v 0.1631 l 2.53,2.53 a 0.357059,0.357059 0 0 1 -0.06492,0.58428 z"
   class="st2"
   id="path43"
   inkscape:connector-curvature="0"
   style="fill:#ffffff;stroke:none;stroke-width:34;stroke-linecap:butt" />
					</g>
					<g
   id="shape9737-12"
   transform="translate(9.08531)">
						<title
   id="title46">Sheet.9737</title>
						<path
   d="m 0.07,117.36 6.49,6.49 a 0.324599,0.324599 -180 0 0 0.454438,0 L 13.51,117.36 a 0.324599,0.324599 -180 0 0 -0.227219,-0.55182 L 9.48,116.81 A 0.357059,0.357059 0 0 1 9.155401,116.4854 L 9.16,100.9 A 0.324599,0.324599 -180 0 0 8.835401,100.54294 L 4.81,100.54 a 0.357059,0.357059 -180 0 0 -0.357059,0.35706 L 4.45,116.48 a 0.324599,0.324599 0 0 1 -0.324599,0.3246 L 0.3,116.81 a 0.324599,0.324599 -180 0 0 -0.227219,0.55182 z"
   class="st2"
   id="path48"
   inkscape:connector-curvature="0"
   style="fill:#ffffff;stroke:none;stroke-width:34;stroke-linecap:butt" />
					</g>
				</g>
				<g
   id="shape9738-14"
   transform="translate(21.6361,-32.2422)">
					<title
   id="title52">Sheet.9738</title>
					<path
   d="M 12.1,123.88 A 8.79663,8.79663 0 0 1 1.32,109.98 8.79663,8.79663 0 0 1 12,123.94 Z"
   class="st3"
   id="path54"
   inkscape:connector-curvature="0"
   style="fill:#0078d4" />
					<path
   d="M 12.1,123.88 A 8.79663,8.79663 0 0 1 1.32,109.98 8.79663,8.79663 0 0 1 12,123.94"
   class="st4"
   id="path56"
   inkscape:connector-curvature="0"
   style="stroke:none;stroke-width:34;stroke-linecap:butt" />
				</g>
				<g
   id="shape9739-17"
   transform="translate(20.7816,-36.7217)">
					<title
   id="title59">Sheet.9739</title>
					<circle
   cx="2.8240099"
   cy="121.118"
   class="st5"
   id="ellipse61"
   r="2.8240099"
   style="fill:url(#grad0-20);stroke:none;stroke-width:34;stroke-linecap:butt" />
				</g>
				<g
   id="shape9740-21"
   transform="translate(20.7816,-32.9888)">
					<title
   id="title64">Sheet.9740</title>
					<path
   d="m 0.03,122.09 0.62,0.98 0.45,0.65 a 19.2812,19.2812 0 0 1 1.11,-3.58 2.75909,2.75909 0 0 1 -1.46,-0.74 21.7806,21.7806 -180 0 0 -0.72,2.69 z m 1.85,-7.37 A 12.9839,12.9839 0 0 1 1.1,111.7 8.05005,8.05005 -180 0 0 0,113.2 a 11.3934,11.3934 -180 0 0 0.65,2.4 3.24599,3.24599 0 0 1 1.23,-0.88 z m 3.02,4.58 a 2.82401,2.82401 0 0 1 -1.56,0.84 14.9965,14.9965 -180 0 0 1.5,1.34 13.4384,13.4384 -180 0 0 2.11,1.26 v -0.23 A 1.72037,1.72037 0 0 1 7.6,121.22 11.6856,11.6856 0 0 1 4.9,119.3 Z m 8.51,3.44 a 13.4384,13.4384 0 0 1 -2.83,-0.32 1.78529,1.78529 0 0 1 -0.52,1.26 12.4646,12.4646 -180 0 0 3.51,0.26 9.51074,9.51074 -180 0 0 1.2,-1.36 z"
   class="st6"
   id="path66"
   inkscape:connector-curvature="0"
   style="fill:#f2f2f2;fill-opacity:0.55;stroke:none;stroke-width:34;stroke-linecap:butt" />
				</g>
				<g
   id="shape9741-23"
   transform="translate(27.728,-32.5993)">
					<title
   id="title69">Sheet.9741</title>
					<circle
   cx="1.81775"
   cy="122.125"
   class="st7"
   id="ellipse71"
   r="1.81775"
   style="fill:none;stroke:none;stroke-width:34;stroke-linecap:butt" />
				</g>
				<g
   id="shape9742-25"
   transform="translate(31.7531,-36.9813)">
					<title
   id="title74">Sheet.9742</title>
					<circle
   cx="1.94759"
   cy="121.995"
   class="st8"
   id="ellipse76"
   r="1.94759"
   style="fill:#f2f2f2;stroke:none;stroke-width:34;stroke-linecap:butt" />
				</g>
				<g
   id="shape9743-27"
   transform="translate(24.6444,-36.1374)">
					<title
   id="title79">Sheet.9743</title>
					<path
   d="m 4.41,116.87 a 13.9253,13.9253 0 0 1 6.11,-1.37 7.27101,7.27101 -180 0 0 -1.53,-1.46 14.6069,14.6069 -180 0 0 -4.84,1.14 c -0.32,0 -0.61,0.36 -0.94,0.52 a 18.989,18.989 0 0 1 -2.04,-3.02 l -1.11,0.42 a 17.366,17.366 -180 0 0 2.11,3.25 12.7243,12.7243 -180 0 0 -2.17,1.78 2.82401,2.82401 0 0 1 1.4,1.14 10.6793,10.6793 0 0 1 1.98,-1.56 29.7332,29.7332 -180 0 0 3.79,3.25 1.85021,1.85021 0 0 1 0.65,-1.04 27.3961,27.3961 0 0 1 -3.41,-3.05 z m 7.6,5.42 h -0.58 l -0.33,-0.2 a 1.98005,1.98005 0 0 1 -0.65,0.98 l 0.39,0.22 0.36,0.2 0.91,0.45 a 11.6206,11.6206 -180 0 0 0.29,-1.13 z"
   class="st6"
   id="path81"
   inkscape:connector-curvature="0"
   style="fill:#f2f2f2;fill-opacity:0.55;stroke:none;stroke-width:34;stroke-linecap:butt" />
				</g>
				<g
   id="shape9744-29"
   transform="translate(20.7816,-36.7217)">
					<title
   id="title84">Sheet.9744</title>
					<circle
   cx="2.8240099"
   cy="121.118"
   class="st8"
   id="ellipse86"
   r="2.8240099"
   style="fill:#f2f2f2;stroke:none;stroke-width:34;stroke-linecap:butt" />
				</g>
				<g
   id="shape9745-31"
   transform="translate(27.728,-32.5993)">
					<title
   id="title89">Sheet.9745</title>
					<circle
   cx="1.81775"
   cy="122.125"
   class="st8"
   id="ellipse91"
   r="1.81775"
   style="fill:#f2f2f2;stroke:none;stroke-width:34;stroke-linecap:butt" />
				</g>
			</g>
		</g>
	</g>
</svg>

<?xml version="1.0" encoding="UTF-8" standalone="no"?>
<!DOCTYPE svg PUBLIC "-//W3C//DTD SVG 1.1//EN" "http://www.w3.org/Graphics/SVG/1.1/DTD/svg11.dtd">
<!-- Generated by Microsoft Visio, SVG Export Application Gateway.svg Page-1 -->
<svg xmlns="http://www.w3.org/2000/svg" xmlns:xlink="http://www.w3.org/1999/xlink" xmlns:ev="http://www.w3.org/2001/xml-events"
		width="1.71056in" height="1.72142in" viewBox="0 0 123.16 123.942" xml:space="preserve" color-interpolation-filters="sRGB"
		class="st9">
	<style type="text/css">
	<![CDATA[
		.st1 {fill:url(#grad0-6);stroke:none;stroke-linecap:butt;stroke-width:34}
		.st2 {fill:#ffffff;stroke:none;stroke-linecap:butt;stroke-width:34}
		.st3 {fill:#0078d4}
		.st4 {stroke:none;stroke-linecap:butt;stroke-width:34}
		.st5 {fill:url(#grad0-20);stroke:none;stroke-linecap:butt;stroke-width:34}
		.st6 {fill:#f2f2f2;fill-opacity:0.55;stroke:none;stroke-linecap:butt;stroke-width:34}
		.st7 {fill:none;stroke:none;stroke-linecap:butt;stroke-width:34}
		.st8 {fill:#f2f2f2;stroke:none;stroke-linecap:butt;stroke-width:34}
		.st9 {fill:none;fill-rule:evenodd;font-size:12px;overflow:visible;stroke-linecap:square;stroke-miterlimit:3}
	]]>
	</style>

	<defs id="Patterns_And_Gradients">
		<linearGradient id="grad0-6" x1="0" y1="0" x2="1" y2="0" gradientTransform="rotate(-45 0.5 0.5)">
			<stop offset="0" stop-color="#5e9624" stop-opacity="1"/>
			<stop offset="0.55" stop-color="#6dad2a" stop-opacity="1"/>
			<stop offset="1" stop-color="#76bc2d" stop-opacity="1"/>
		</linearGradient>
		<linearGradient id="grad0-20" x1="0" y1="0" x2="1" y2="0" gradientTransform="rotate(-90.454718861693 0.5 0.5)">
			<stop offset="0" stop-color="#cccccc" stop-opacity="1"/>
			<stop offset="0.12" stop-color="#d7d7d7" stop-opacity="1"/>
			<stop offset="0.42" stop-color="#ebebeb" stop-opacity="1"/>
			<stop offset="0.72" stop-color="#f8f8f8" stop-opacity="1"/>
			<stop offset="1" stop-color="#fcfcfc" stop-opacity="1"/>
		</linearGradient>
	</defs>
	<g>
		<title>Page-1</title>
		<g id="group9526-1" transform="translate(33.2336,-34.0157)">
			<title>Application Gateway</title>
			<g id="group9527-2">
				<title>Icon-networking-76</title>
				<g id="shape9528-3" transform="translate(-59.294,36.3018) rotate(-45)">
					<title>Sheet.9528</title>
					<path d="M0 122.09 A1.85026 1.85026 -180 0 0 1.85 123.94 L38.24 123.94 A1.85026 1.85026 -180 0 0 40.09 122.09
								 L40.09 85.7 A1.85026 1.85026 -180 0 0 38.24 83.85 L1.85 83.85 A1.85026 1.85026 -180 0 0 -0 85.7
								 L0 122.09 Z" class="st1"/>
				</g>
				<g id="group9529-7" transform="translate(12.1473,-8.55108)">
					<title>Sheet.9529</title>
					<g id="shape9530-8" transform="translate(13.6671,-14.8945)">
						<title>Sheet.9530</title>
						<path d="M8.7 123.94 L17.92 123.94 a0.357059 0.357059 -180 0 0 0.324599 -0.357059 L18.24 114.4 a0.324599
									 0.324599 -180 0 0 -0.584278 -0.227219 L15.12 116.7 L15.12 116.87 a0.324599 0.324599 0 0 1 -0.454438
									 -1.42109E-14 L3.41 105.76 a0.324599 0.324599 -180 0 0 -0.454438 -5.68434E-14 L0.1 108.62 a0.357059
									 0.357059 -180 0 0 1.45439E-14 0.486898 L11.16 120.18 a0.357059 0.357059 0 0 1 1.59872E-14 0.486898
									 L11 120.83 L8.47 123.36 a0.357059 0.357059 -180 0 0 0.227219 0.584278 Z" class="st2"/>
					</g>
					<g id="shape9531-10" transform="translate(0,-14.8945)">
						<title>Sheet.9531</title>
						<path d="M9.48 123.94 L0.26 123.94 a0.357059 0.357059 0 0 1 -0.259679 -0.357059 L0 114.4 a0.324599 0.324599
									 0 0 1 0.551818 -0.227219 L3.12 116.7 L3.12 116.87 a0.324599 0.324599 -180 0 0 0.454438 1.42109E-14
									 L14.77 105.76 a0.324599 0.324599 0 0 1 0.454438 8.52651E-14 L18.08 108.62 a0.357059 0.357059
									 0 0 1 3.55271E-15 0.486898 L7.01 120.18 a0.357059 0.357059 -180 0 0 -1.77636E-15 0.486898 L7.01
									 120.83 L9.54 123.36 a0.357059 0.357059 0 0 1 -0.0649197 0.584278 Z" class="st2"/>
					</g>
					<g id="shape9532-12" transform="translate(9.08531,0)">
						<title>Sheet.9532</title>
						<path d="M0.07 117.36 L6.56 123.85 a0.324599 0.324599 -180 0 0 0.454438 0 L13.51 117.36 a0.324599 0.324599
									 -180 0 0 -0.227219 -0.551818 L9.48 116.81 a0.357059 0.357059 0 0 1 -0.324599 -0.324599 L9.16
									 100.9 a0.324599 0.324599 -180 0 0 -0.324599 -0.357059 L4.81 100.54 a0.357059 0.357059 -180 0
									 0 -0.357059 0.357059 L4.45 116.48 a0.324599 0.324599 0 0 1 -0.324599 0.324599 L0.3 116.81 a0.324599
									 0.324599 -180 0 0 -0.227219 0.551818 Z" class="st2"/>
					</g>
				</g>
				<g id="shape9533-14" transform="translate(21.6361,-32.2422)">
					<title>Sheet.9533</title>
					<path d="M12.1 123.88 A8.79663 8.79663 0 0 1 1.32 109.98 A8.79663 8.79663 0 0 1 12 123.94 L12.1 123.88 Z"
							class="st3"/>
					<path d="M12.1 123.88 A8.79663 8.79663 0 0 1 1.32 109.98 A8.79663 8.79663 0 0 1 12 123.94" class="st4"/>
				</g>
				<g id="shape9534-17" transform="translate(20.7816,-36.7217)">
					<title>Sheet.9534</title>
					<ellipse cx="2.82401" cy="121.118" rx="2.82401" ry="2.82401" class="st5"/>
				</g>
				<g id="shape9535-21" transform="translate(20.7816,-32.9888)">
					<title>Sheet.9535</title>
					<path d="M0.03 122.09 L0.65 123.07 L1.1 123.72 A19.2812 19.2812 0 0 1 2.21 120.14 A2.75909 2.75909 0 0 1 0.75
								 119.4 A21.7806 21.7806 -180 0 0 0.03 122.09 ZM1.88 114.72 A12.9839 12.9839 0 0 1 1.1 111.7 A8.05005
								 8.05005 -180 0 0 0 113.2 A11.3934 11.3934 -180 0 0 0.65 115.6 A3.24599 3.24599 0 0 1 1.88 114.72
								 ZM4.9 119.3 A2.82401 2.82401 0 0 1 3.34 120.14 A14.9965 14.9965 -180 0 0 4.84 121.48 A13.4384 13.4384
								 -180 0 0 6.95 122.74 L6.95 122.51 A1.72037 1.72037 0 0 1 7.6 121.22 A11.6856 11.6856 0 0 1 4.9 119.3
								 ZM13.41 122.74 A13.4384 13.4384 0 0 1 10.58 122.42 A1.78529 1.78529 0 0 1 10.06 123.68 A12.4646
								 12.4646 -180 0 0 13.57 123.94 A9.51074 9.51074 -180 0 0 14.77 122.58 L13.41 122.74 Z" class="st6"/>
				</g>
				<g id="shape9536-23" transform="translate(27.728,-32.5993)">
					<title>Sheet.9536</title>
					<ellipse cx="1.81775" cy="122.125" rx="1.81775" ry="1.81775" class="st7"/>
				</g>
				<g id="shape9537-25" transform="translate(31.7531,-36.9813)">
					<title>Sheet.9537</title>
					<ellipse cx="1.94759" cy="121.995" rx="1.94759" ry="1.94759" class="st8"/>
				</g>
				<g id="shape9538-27" transform="translate(24.6444,-36.1374)">
					<title>Sheet.9538</title>
					<path d="M4.41 116.87 A13.9253 13.9253 0 0 1 10.52 115.5 A7.27101 7.27101 -180 0 0 8.99 114.04 A14.6069 14.6069
								 -180 0 0 4.15 115.18 C3.83 115.18 3.54 115.54 3.21 115.7 A18.989 18.989 0 0 1 1.17 112.68 L0.06
								 113.1 A17.366 17.366 -180 0 0 2.17 116.35 A12.7243 12.7243 -180 0 0 -0 118.13 A2.82401 2.82401 0
								 0 1 1.4 119.27 A10.6793 10.6793 0 0 1 3.38 117.71 A29.7332 29.7332 -180 0 0 7.17 120.96 A1.85021
								 1.85021 0 0 1 7.82 119.92 A27.3961 27.3961 0 0 1 4.41 116.87 ZM12.01 122.29 L11.43 122.29 L11.1
								 122.09 A1.98005 1.98005 0 0 1 10.45 123.07 L10.84 123.29 L11.2 123.49 L12.11 123.94 A11.6206 11.6206
								 -180 0 0 12.4 122.81 L12.01 122.29 Z" class="st6"/>
				</g>
				<g id="shape9539-29" transform="translate(20.7816,-36.7217)">
					<title>Sheet.9539</title>
					<ellipse cx="2.82401" cy="121.118" rx="2.82401" ry="2.82401" class="st8"/>
				</g>
				<g id="shape9540-31" transform="translate(27.728,-32.5993)">
					<title>Sheet.9540</title>
					<ellipse cx="1.81775" cy="122.125" rx="1.81775" ry="1.81775" class="st8"/>
				</g>
			</g>
		</g>
	</g>
</svg>
